symbols/web/mic_external_off/materialsymbolsrounded/mic_external_off_wght200grad200_40px.svg

<svg xmlns="http://www.w3.org/2000/svg" height="40" width="40"><path d="M15.083 11.167 9.25 5.333q.5-.333 1.042-.562.541-.229 1.083-.229 1.917 0 3.208 1.333 1.292 1.333 1.292 3.167 0 .625-.229 1.166-.229.542-.563.959ZM32.208 28.25l-2.166-2.125V10.542q0-1.625-1.104-2.75-1.105-1.125-2.73-1.125-1.666 0-2.791 1.125t-1.125 2.75v7.833l-2.125-2.125v-5.708q0-2.459 1.75-4.229 1.75-1.771 4.291-1.771 2.5 0 4.25 1.771 1.75 1.77 1.75 4.229Zm1.042 8.417L22.292 25.75v3.708q0 2.459-1.73 4.23-1.729 1.77-4.229 1.77t-4.271-1.77q-1.77-1.771-1.77-4.23h-.625q-.292 0-.5-.208-.209-.208-.25-.5L7.542 15.333q-.084-.416.146-.854.229-.437.687-.646h2.042L2.792 6.208q-.334-.291-.313-.708.021-.417.354-.792.375-.333.771-.333t.771.333l30.417 30.459q.333.333.354.75.021.416-.354.75-.375.375-.771.375t-.771-.375Zm-22.375-9.125h1.083l1.084-11.084-.667-.666H9.708Zm5.458 5.791q1.625 0 2.729-1.125 1.105-1.125 1.105-2.75v-5.833l-5.125-5.167-1.125 10.292q-.042.292-.229.5-.188.208-.48.208h-.75q0 1.625 1.104 2.75 1.105 1.125 2.771 1.125ZM9.708 15.792H13.042h-2.167Z"/></svg>

<svg xmlns="http://www.w3.org/2000/svg" height="40" width="40"><path d="M15.083 11.167 9.25 5.333Q9.75 5 10.292 4.771Q10.833 4.542 11.375 4.542Q13.292 4.542 14.583 5.875Q15.875 7.208 15.875 9.042Q15.875 9.667 15.646 10.208Q15.417 10.75 15.083 11.167ZM32.208 28.25 30.042 26.125V10.542Q30.042 8.917 28.938 7.792Q27.833 6.667 26.208 6.667Q24.542 6.667 23.417 7.792Q22.292 8.917 22.292 10.542V18.375L20.167 16.25V10.542Q20.167 8.083 21.917 6.313Q23.667 4.542 26.208 4.542Q28.708 4.542 30.458 6.313Q32.208 8.083 32.208 10.542ZM33.25 36.667 22.292 25.75V29.458Q22.292 31.917 20.562 33.688Q18.833 35.458 16.333 35.458Q13.833 35.458 12.062 33.688Q10.292 31.917 10.292 29.458H9.667Q9.375 29.458 9.167 29.25Q8.958 29.042 8.917 28.75L7.542 15.333Q7.458 14.917 7.688 14.479Q7.917 14.042 8.375 13.833H10.417L2.792 6.208Q2.458 5.917 2.479 5.5Q2.5 5.083 2.833 4.708Q3.208 4.375 3.604 4.375Q4 4.375 4.375 4.708L34.792 35.167Q35.125 35.5 35.146 35.917Q35.167 36.333 34.792 36.667Q34.417 37.042 34.021 37.042Q33.625 37.042 33.25 36.667ZM10.875 27.542H11.958L13.042 16.458L12.375 15.792H9.708ZM16.333 33.333Q17.958 33.333 19.062 32.208Q20.167 31.083 20.167 29.458V23.625L15.042 18.458L13.917 28.75Q13.875 29.042 13.688 29.25Q13.5 29.458 13.208 29.458H12.458Q12.458 31.083 13.562 32.208Q14.667 33.333 16.333 33.333ZM9.708 15.792H12.375H13.042H11.958H10.875Z"/></svg>
